X:1
T:Title
%%score { ( 1 3 4 6 ) | ( 2 5 7 ) }
L:1/8
Q:1/4=100
M:4/4
K:G
V:1 treble nm="Grand Piano"
V:3 treble 
V:4 treble 
V:6 treble 
V:2 bass 
V:5 bass 
V:7 bass 
V:1
 [B,D]3 [CE] [B,D]B,[B,D][B,G] | z4 =B4 | [DFA]3 [DFA] [CFA][CFA][CFB][CFA] | %3
w: Flora~H.~Cassel * * * * *|||
 [B,DG]3 [CE][K:bass] [G,B,D][G,A,C][D,G,B,][D,A,C] | [B,D]3[K:treble] [CE] [B,D]B,[B,D][B,G] | %5
w: ||
 B2 B>_B z2 z =B | A3 A AAB^c | z2 z d z d z d | d3 e dBGA | B2 B>_B z2 z =B | d3 e dBGB | %11
w: ||||||
 A>A [^CA][CB] AFED | [B,D]3 [CE] [B,D]B,[B,D][B,G] | B>B B>_B z2 z =B | %14
w: |||
 [EA]3 [Ge] [Gd][DGB][B,G][CGA] | [DGB]2 [CFA]2 [B,G]4 |] %16
w: ||
V:2
 [G,,G,]3 [G,,G,] [G,,G,][G,,G,][G,,G,][G,,G,] | [G,D]2 [G,DG]>[G,^CG] .[DG]2 z B | %2
 D,3 D, D,D,D,D, | G,3 G, G,,G,,G,,G,, | [G,,G,]3 [G,,G,] [G,,G,][G,,G,][G,,G,][G,,G,] | %5
 [G,D]2 [G,DG]>[G,^CG] .[DG]2 z2 | [A,DF]3 [A,DF] [A,^CG][A,CG][A,DG][A,EG] | %7
 z2 z [DF] z [DG] z[K:treble] [Dc] | [G,,G,B,GB]3 [G,CG] [G,B,G][G,DG][G,B,][G,CG] | %9
 [G,DG]2 [G,DG]>[G,^CG] .[DG]2 z2 | [G,B,G]3 [G,CG] [G,B,G][G,DG][G,B,D][K:bass][G,D] | %11
 [D,F,D]>[D,F,D] [A,,G,][A,,G,] [D,F,D][D,A,C][D,G,C][D,F,C] | %12
 [G,,G,]3 [G,,G,] [G,,G,][G,,G,][G,,G,][G,,G,] | [G,D]>[G,DG] [G,DG]>[G,^CG] .[DG]2 z2 | %14
 [C,C]3 [C,C] [D,B,]D,D,D, | D,2 D,2 G,4 |] %16
V:3
 x8 | B2 B>_B z2 G2 | x8 | x4[K:bass] x4 | x3[K:treble] x5 | z4 =B4 | x8 | [DFd]4 z4 | x8 | %9
 z4 =B4 | x8 | x8 | x8 | z4 =B4 | x8 | x8 |] %16
V:4
 x8 | z4 z D3 | x8 | x4[K:bass] x4 | x3[K:treble] x5 | z4 z2 G2 | x8 | z2 A,2 G,2 F,2 | x8 | %9
 z4 z2 G2 | x8 | x8 | x8 | z4 z2 G2 | x8 | x8 |] %16
V:5
 x8 | z4 G,4 | x8 | x8 | x8 | z4 G,4 | x8 | D,4 z4[K:treble] | x8 | z4 G,4 | x7[K:bass] x | x8 | %12
 x8 | z4 G,4 | x8 | x8 |] %16
V:6
 x8 | x8 | x8 | x4[K:bass] x4 | x3[K:treble] x5 | z4 z D3 | x8 | x8 | x8 | z4 z D3 | x8 | x8 | x8 | %13
 z4 z D3 | x8 | x8 |] %16
V:7
 x8 | x8 | x8 | x8 | x8 | x8 | x8 | z2 C,2 B,,2 A,,2[K:treble] | x8 | x8 | x7[K:bass] x | x8 | x8 | %13
 x8 | x8 | x8 |] %16

